X: 2015
T: Yâr Senden Kalınca Ayrı
C: Münir Nurettin Selçuk
O: Turkey
F: http://compmusic.upf.edu/node/140
N: nihavent--sarki--devrihindi--yar_senden--munir_nurettin_selcuk
N: makam= nihavent
N: form= sarki
N: usul= devrihindi = 7/4
M: 7/4
L: 1/16
K: C _B _e  
Q: 1/4=144
%%MIDI tuningsystem comma53
d14  | d14  | G2 A2 B2 c2 d2 ed ce  | d14  | \
w:   |   |   |   | 
G2 A2 B2 c2 d2 f3/2e/ de  | 
w:   | 
d8-d2 cd cd  | e8-e2 Bc Bc  | d8-d2 AB cd  | \
w:   |   |   | 
e2 d2 c2 B2 A2 G2 ^F2  | 
w:   | 
G14  | d14  | d14  | G2 A2 B2 c2 d2 ed ce  | d14  | \
w:   |   |   |   |   | 
G2 A2 B2 c2 d2 f3/2e/ de  | 
w:   | 
d8-d2 cd cd  | e8-e2 Bc Bc  | d8-d2 AB cd  | \
w:   |   |   | 
e2 d2 c2 B2 A2 G2 ^F2  | 
w:   | 
G14  | d14  | d14  | B4 AG G6 z2  | g2 f2 e2 d2 _1/4e2 f4  | \
w:   |  Yar   |   |  sen *  *  den   |  ka *  *  lın  | 
e4 d2 c6 ed  | d14  | B2 A2 G2 GA Bc d4  | 
w:  ca  *  ay  |  rı    |  SAZ  | 
B2 A2 G2 fe de d2 z2  | d4 d2 g4 z4  | \
w:   |  İs te mem   | 
g2 f2 a2 f4 z4  | f2 _1/4e2 g2 _e4 d2 ed  | 
w:  ya *  *  zı   |  ba *  *  ha  | 
d14  | b2 a2 g2 f2 e2 de fg  | d4 c2 Bc Bc d2 z2  | \
w:  rı    |  SAZ  |   | 
d4 _1/4e2 f4 z4  | 
w:  Öm rü mün   | 
f2 e2 d2 g8  | _7/8a2 g2 f2 e2 d2 c2 {e}dc  | c14  | \
w:  ah   |  kal *  ma dı  *  hay  |  rı    | 
B4 c2 d8  | d14  | B4 AG G6 z2  | 
w:  Geç mi yor   |   |  gün *  *  ler   | 
g14  | g2 f2 a2 f8  | f2 _1/4e2 g2 _e4 de fg  | d14  | \
w:  ah   |   |  ah   |   | 
c2 B2 A2 c4 z4  | B2 A2 G2 A2 {c}BA AG G^F  | 
w:  gün *  *  ler   |  geç *  *  *  *  *  *  *  *  mi  | 
G8-G2 GA Bc  | d8-d2 cd ef  | d8-d2 cd eg  | \
w:  yor   SAZ  |   |   | 
f2 e2 d2 c2 B2 AB AB  | 
w:   | 
G14  | d14  | d14  | B4 AG G6 z2  | g2 f2 e2 d2 _1/4e2 f4  | \
w:   |  Ah   |   |  ay rı *  lık   |  var *  *  mış   | 
e4 d2 c6 ed  | d14  | B2 A2 G2 GA Bc d4  | 
w:  a *  *  ra  |  da    |  SAZ  | 
B2 A2 G2 f3/2e/ de d2 z2  | d3d3 g6 z2  | \
w:   |  Göz  yaş ta   | 
g2 f2 a2 f4 z4  | f2 _1/4e2 g2 _e4 d2 {f}ed  | 
w:  gö *  *  nül   |  ka *  *  *  *  *  ra  | 
d14  | b2 a2 g2 f2 e2 de fg  | d4 c2 Bc Bc .d4  | \
w:  da    |  SAZ  |   | 
d4 d2 _1/4e2 f4 z2  | 
w:  Sen  o ra da   | 
f2 e2 d2 g6 z2  | _7/8a2 g2 f2 e2 d2 c2 {e}dc  | c14  | \
w:  ah   |  ben  *  *  *  *  bu *  ra  |  da    | 
B4 c2 d8  | d14  | B4 AG G6 z2  | 
w:  Geç mi yor   |   |  gün *  *  ler    | 
g14  | g2 f2 a2 f6 z2  | f2 _1/4e2 g2 _e4 de fg  | d14  | \
w:  ah   |   |  ah   |   | 
c2 B2 A2 c4 z4  | B2 A2 G2 A2 {c}BA AG G^F  | 
w:  gün *  *  ler   |  geç *  *  *  *  *  *  *  *  mi  | 
G8-G2 GA Bc  | d8-d2 cd ef  | d8-d2 cd eg  | \
w:  yor   SAZ  |  SAZ  |   | 
f2 e2 d2 c2 B2 AB AB  | 
w:   | 
G8-G2 GA Bc  | d8-d2 cd ef  | d8-d2 cd eg  | \
w:   |  SAZ  |   | 
f2 e2 d2 c2 B2 AB AB  | 
w:   | 
G14  | B14  | B6 d8  | d6 g8  | g4 d'8-d'2  | \
w:   |  Ah   |   |  *  ah   |   | 
d'6 e8  | e4 _a8 g2  | g6 ^f8  | e2 d2 ^c2 d8  | \
w:   |  *  ah   |   |   | 
d6 d4 c4  | 
w:  *  gün  | 
B4 d8-d2  | d6 c4 B4  | A4 c8-c2  | c6 B4 A4  | \
w:  *  ler   |  *  gün  |  *  ler   |  *  geç  | 
G4 A4 B2 A4  | G4 ^F2 G8  | G8-G2 z4  | 
w:   |  mi *  yor    |   | 
|


